X:1
T:Norrøna-Stammen
T:Norröna-Stammen
T:Hans M. Mo (1835-1920)
C:Hans M. Mo (1835-1920)
%%score [ 1 2 3 4 ]
L:1/8
Q:1/4=80
M:4/4
K:E
V:1 treble-8 nm="T1"
V:2 treble-8 nm="T2"
V:3 bass nm="B1"
V:4 bass nm="B2"
V:1
!mf!"^Marcia"!<(! G2!<)! |!>(! G3 F!>)! E2!<(! G2!<)! |!>(! c4!>)! G2 A2 | G3 F E2 F2 | %4
w: Nor-|rö- na- stam- mens|Læng- sel, den|var det fri- e|
 G4 z2!<(! G2!<)! | B3 c!>(! B2 F2!>)! | G4 G2 c2 | ^B2 d2!<(! c2 e2!<)! |!f! d4 z2!mf! G2 | %9
w: Hav og|Kam- pens Gu- de-|træng- sel og|Æ- ren som den|gav; var|
 c2 B2!<(! d2 f2!<)! |!>(! B4!>)! A2 A2 | G2 c2 (cB) (AG) | F4 z2!f! B2 | G2 G2!<(! B2 B2!<)! | %14
w: Stor- daad og var|Tan- ker med|Rod i Sur- * turs _|Ild, med|Gre- ne u- den|
 e4!>(! d2 c2!>)! | B2 G2 A2 (GA) | B4 z2!<(! B2!<)! |!ff! a2 a2 d2 d2 | e2 g4 f2 | e2 (de) f2 f2 | %20
w: Skran- ker og|Top i Ygg- dra- *|sil, med|Gre- ne u- den|Skran- ker og|Top i _ Ygg- dra-|
 !fermata!e4 z2 |] %21
w: sil.|
V:2
!mf!!<(! G2!<)! |!>(! G3 F!>)! E2!<(! G2!<)! |!>(! G4!>)! G2 F2 | E3 D C2 D2 | E4 z2!<(! G2!<)! | %5
w: Nor-|rö- na- stam- mens|Læng- sel, den|var det fri- e|Hav og|
 F3 F!>(! F2 F2!>)! | E4 E2 G2 | G2 G2!<(! G2 c2!<)! |!f! ^B4 z2!mf! G2 | A2 G2!<(! F2 A2!<)! | %10
w: Kam- pens Gu- de-|træng- sel og|Æ- ren som den|gav; var|Stor- daad og var|
!>(! G3 F!>)! E2 F2 | G2 A2 (AG) (FE) | D4 z2!f! F2 | G2 G2!<(! F2 F2!<)! | F4!>(! F2 A2!>)! | %15
w: Tan- * ker med|Rod i Sur- * turs _|Ild, med|Gre- ne u- den|Skran- ker og|
 G2 E2 E2 E2 | D4 z2!<(! B2!<)! |!ff! f2 d2 B2 B2 | B2 e2 e4 | B2 B2 e2 d2 | !fermata!B4 z2 |] %21
w: Top i Ygg- dra-|sil, med|Gre- ne u- den|Skran- ker og|Top i Ygg- dra-|sil.|
V:3
!mf!!<(! G,2!<)! |!>(! G,3 F,!>)! E,2!<(! G,2!<)! |!>(! E,4!>)! E,2 C,2 | B,,3 B,, B,,2 B,,2 | %4
w: Nor-|rö- na- stam- mens|Læng- sel, den|var det fri- e|
 E,4 z2!<(! E,2!<)! | D,3 E,!>(! D,2 D,2!>)! | E,4 E,2 E,2 | F,2 F,2!<(! E,2 G,2!<)! | %8
w: Hav og|Kam- pens Gu- de-|træng- sel og|Æ- ren som den|
!f! G,4 z2!mf! G,2 | F,2 G,2!<(! A,2 D,2!<)! |!>(! E,3 D,!>)! C,2 D,2 | E,2 E,2 (F,^E,) (F,C,) | %12
w: gav; var|Stor- daad og var|Tan- * ker med|Rod i Sur- * turs _|
 D,4 z2!f! D,2 | E,2 E,2!<(! F,2 F,2!<)! | ^A,4!>(! B,2 (E,F,)!>)! | E,2 E,2 E,2 F,2 | %16
w: Ild, med|Gre- ne u- den|Skran- ker og _|Top i Ygg- dra-|
 F,4 z2!<(! B,2!<)! |!ff! B,2 B,2 G,2 A,2 | G,2 B,4 A,2 | G,2 (F,G,) C2 (B,A,) | !fermata!G,4 z2 |] %21
w: sil, med|Gre- ne u- den|Skran- ker og|Top i _ Ygg- dra- *|sil.|
V:4
!mf!!<(! G,2!<)! |!>(! G,3 F,!>)! E,2!<(! G,2!<)! |!>(! C,4!>)! C,2 A,,2 | B,,3 B,, B,,2 B,,2 | %4
w: Nor-|rö- na- stam- mens|Læng- sel, den|var det fri- e|
 E,4 z2!<(! E,2!<)! | B,,3 B,,!>(! B,,2 B,,2!>)! | E,4 E,2 C,2 | D,2 ^B,,2!<(! C,2 C,2!<)! | %8
w: Hav og|Kam- pens Gu- de-|træng- sel og|Æ- ren som den|
!f! G,,4 z2!mf! G,2 | D,2 E,2!<(! B,,2 B,,2!<)! |!>(! B,,4!>)! C,2 D,2 | %11
w: gav; var|Stor- daad og var|Tan- ker med|
 E,2 A,,2 (F,,G,,) (A,,^A,,) | B,,4 z2!f! B,,2 | E,2 E,2!<(! D,2 D,2!<)! | %14
w: Rod i Sur- * turs _|Ild, med|Gre- ne u- den|
 C,4!>(! B,,2 (C,D,)!>)! | E,2 D,2 C,2 =C,2 | B,,4 z2!<(! B,,2!<)! |!ff! D,2 B,,2 G,2 F,2 | %18
w: Skran- ker og _|Top i Ygg- dra-|sil, med|Gre- ne u- den|
 E,2 E,2 A,,4 | B,,2 B,,2 B,,2 B,,2 | !fermata!E,4 z2 |] %21
w: Skran- ker og|Top i Ygg- dra-|sil.|

